X:36
T:Die gldne Sonne voll Freud und...
B:Frau Nachtigall (Straburg - 1928)
Z:<anamnese@laposte.net> -- http://anamnese.fr.st
N:p.153
M:C
L:1/4
Q:1/4=150
K:E
BBc | (B>A)G | BAF | (G>F)E | GAB | c2c | FGA | B2B | EEF |
G>AB | FED | E2z | BBA | GGF | E>DC | DB,z | EEF |GGF | G>G ^A |
BBz | GEF | G>A B | FED | E2 z |]
W:Die gldne Sonne voll Freud und Wonne bringt unsern Grenzen mit ihrem Glnzen ein herzerquikkendes, liebliches Licht.
